app/assets/img/repair.svg

<svg width="40" height="40" viewBox="0 0 40 40" fill="none" xmlns="http://www.w3.org/2000/svg">
<g id="ic/repair">
<rect id="back" width="40" height="40" rx="20" fill="#FF3E79"/>
<g id="Group">
<path id="Path" d="M18.2581 23.4583L18.6668 23.0494L16.95 21.3322L16.5412 21.7411L16.3368 21.5367C16.0098 21.1687 15.6828 20.9643 15.3558 21.0052C15.1105 21.0052 14.9061 21.1687 14.7426 21.414C14.4973 21.8229 14.62 22.2726 14.6608 22.5588C14.6608 22.6406 14.7017 22.6815 14.7017 22.7632C14.7017 22.8859 14.7017 23.0494 14.4156 23.0903C14.0068 23.213 13.4754 23.3356 12.944 23.6218C12.2082 24.0307 11.7176 24.3987 11.4315 24.7666C9.91902 26.7291 10.0008 28.4055 10.0008 28.4872C10.0008 28.6099 10.0417 28.6917 10.1234 28.7325L11.2271 29.8773C11.3089 29.9591 11.3906 30 11.4724 30C11.4724 30 11.5133 30 11.595 30C12.0038 30 13.4754 29.9182 15.1922 28.569C15.5601 28.2828 15.928 27.7922 16.3368 27.0562C16.623 26.5656 16.7865 26.0341 16.8682 25.5844C16.95 25.2982 17.0726 25.2982 17.1953 25.2982C17.2361 25.2982 17.3179 25.339 17.3996 25.339C17.5631 25.3799 17.7267 25.4208 17.931 25.4208C18.1354 25.4208 18.3398 25.3799 18.5442 25.2573C18.7895 25.0937 18.953 24.8893 18.9939 24.644C19.0347 24.3169 18.8712 23.9898 18.5033 23.7036L18.2581 23.4583Z" fill="white"/>
<path id="Path_2" d="M26.884 14.8784L28.0188 14.326C28.0609 14.2835 28.1449 14.241 28.1869 14.1986L29.9101 11.8616C30.0362 11.6916 30.0362 11.4367 29.8681 11.3092L28.6913 10.1195C28.5652 9.99199 28.313 9.9495 28.1449 10.077L25.8333 11.8191C25.7913 11.8616 25.7493 11.9041 25.7072 11.989L25.1609 13.1363L21 17.2154L22.7652 19L26.884 14.8784Z" fill="white"/>
<path id="Path_3" d="M27.8527 23.0448C26.8636 22.0036 25.4393 21.6288 24.0941 22.0036L17.6453 15.1733C17.7244 14.7985 17.764 14.4653 17.764 14.0905C17.764 13.0493 17.3683 12.0081 16.6166 11.2167C15.588 10.0923 14.045 9.71742 12.6207 10.2172C12.5416 10.2588 12.4229 10.3838 12.3833 10.5504C12.3833 10.6753 12.4229 10.8003 12.502 10.9252L14.4406 12.966C14.8758 13.4241 14.8758 14.2154 14.4406 14.6735C14.0054 15.1317 13.2537 15.1317 12.8185 14.6735L10.8799 12.6328C10.7612 12.5495 10.6425 12.5078 10.4843 12.5495C10.3656 12.5495 10.2469 12.6744 10.2073 12.7994C9.73256 14.2571 10.0886 15.8813 11.1173 16.9642C11.8294 17.7555 12.8581 18.172 13.8867 18.172C14.2032 18.172 14.5593 18.1303 14.8758 18.047L21.3642 24.8773C21.0082 26.2933 21.4038 27.7927 22.3533 28.8339C23.105 29.6252 24.0546 30 25.0832 30C25.5184 30 25.914 29.9167 26.3492 29.7918C26.4679 29.7501 26.5866 29.6252 26.6262 29.5002C26.6658 29.3753 26.6262 29.2087 26.5075 29.1254L24.5689 27.0846C24.3711 26.8764 24.2128 26.5432 24.2128 26.21C24.2128 25.8768 24.3315 25.5853 24.5689 25.3354C24.8063 25.0855 25.0832 24.9606 25.3997 24.9606C25.7162 24.9606 25.9932 25.0855 26.2306 25.3354L28.1692 27.3762C28.2879 27.4595 28.4065 27.5011 28.5252 27.5011C28.6439 27.4595 28.7626 27.3762 28.8022 27.2512C28.9209 26.8348 29 26.3766 29 25.9185C29 24.8356 28.6044 23.7944 27.8527 23.0448Z" fill="white"/>
</g>
</g>
</svg>

<svg width="40" height="40" fill="none" xmlns="http://www.w3.org/2000/svg"><rect width="40" height="40" rx="20" fill="#FF3E79"/><g fill="#fff"><path d="m18.258 23.458.409-.409-1.717-1.717-.409.41-.204-.205c-.327-.368-.654-.573-.981-.532-.245 0-.45.164-.613.409-.246.409-.123.859-.082 1.145 0 .082.04.122.04.204 0 .123 0 .286-.285.327-.41.123-.94.246-1.472.532-.736.409-1.226.777-1.513 1.145-1.512 1.962-1.43 3.639-1.43 3.72 0 .123.04.205.122.246l1.104 1.144c.082.082.164.123.245.123h.123c.409 0 1.88-.082 3.597-1.431.368-.286.736-.777 1.145-1.513.286-.49.45-1.022.531-1.472.082-.286.205-.286.327-.286.041 0 .123.041.205.041.163.04.327.082.531.082.204 0 .409-.041.613-.164.245-.163.409-.368.45-.613.04-.327-.123-.654-.49-.94l-.246-.246Zm8.626-8.58 1.135-.552c.042-.043.126-.085.168-.127l1.723-2.337c.126-.17.126-.425-.042-.553l-1.177-1.19c-.126-.127-.378-.17-.546-.042l-2.312 1.742a.589.589 0 0 0-.126.17l-.546 1.147L21 17.216 22.765 19l4.119-4.122Z"/><path d="M27.853 23.045a3.748 3.748 0 0 0-3.759-1.041l-6.449-6.83c.08-.375.119-.709.119-1.083a4.184 4.184 0 0 0-1.147-2.874 3.697 3.697 0 0 0-3.996-1 .542.542 0 0 0-.238.333c0 .125.04.25.119.375l1.939 2.041c.435.458.435 1.25 0 1.708a1.129 1.129 0 0 1-1.623 0l-1.938-2.041c-.119-.083-.238-.125-.396-.083-.118 0-.237.124-.277.25-.474 1.457-.118 3.081.91 4.164.712.792 1.741 1.208 2.77 1.208.316 0 .672-.042.989-.125l6.488 6.83a4.339 4.339 0 0 0 .99 3.957A3.668 3.668 0 0 0 25.083 30c.434 0 .83-.083 1.265-.208a.491.491 0 0 0 .277-.292.346.346 0 0 0-.119-.375l-1.938-2.04a1.332 1.332 0 0 1-.356-.875c0-.333.118-.625.356-.875a1.11 1.11 0 0 1 .83-.374c.317 0 .594.125.832.374l1.938 2.041a.617.617 0 0 0 .356.125c.119-.042.238-.125.277-.25A4.92 4.92 0 0 0 29 25.92c0-1.083-.396-2.125-1.147-2.874Z"/></g></svg>
